packages/editor-ui/public/n8n-dev-logo-dark-mode.svg

<svg width="240" height="40" viewBox="0 0 240 40" fill="none" xmlns="http://www.w3.org/2000/svg">
<mask id="mask0_1486_25943" style="mask-type:luminance" maskUnits="userSpaceOnUse" x="0" y="0" width="143" height="40">
<path d="M0 0H143V40H0V0Z" fill="white"/>
</mask>
<g mask="url(#mask0_1486_25943)">
<path fill-rule="evenodd" clip-rule="evenodd" d="M78.974 7.99999C78.9759 9.94852 78.2666 11.8308 76.9792 13.2934C75.6919 14.7561 73.9149 15.6987 71.9819 15.9442C70.0489 16.1896 68.0927 15.7212 66.4806 14.6268C64.8685 13.5323 63.7112 11.8871 63.226 9.99999H52.056C51.1093 10.0001 50.1933 10.336 49.471 10.9479C48.7486 11.5599 48.2667 12.4082 48.111 13.342L47.782 15.315C47.4809 17.1296 46.5625 18.7845 45.182 20C46.5625 21.2155 47.4809 22.8704 47.782 24.685L48.111 26.658C48.2667 27.5918 48.7486 28.4401 49.471 29.052C50.1933 29.664 51.1093 29.9999 52.056 30H55.226C55.7128 28.1147 56.8704 26.4716 58.482 25.3788C60.0936 24.286 62.0484 23.8184 63.98 24.0638C65.9116 24.3091 67.6875 25.2505 68.9746 26.7115C70.2618 28.1725 70.972 30.0528 70.972 32C70.972 33.9471 70.2618 35.8274 68.9746 37.2885C67.6875 38.7495 65.9116 39.6909 63.98 39.9362C62.0484 40.1816 60.0936 39.714 58.482 38.6212C56.8704 37.5284 55.7128 35.8853 55.226 34H52.056C50.1624 33.9997 48.3304 33.3278 46.8857 32.1037C45.4409 30.8796 44.4772 29.1828 44.166 27.315L43.836 25.342C43.6803 24.4082 43.1984 23.5599 42.476 22.9479C41.7537 22.336 40.8377 22.0001 39.891 22H36.628C36.1269 23.6394 35.1128 25.0747 33.7348 26.0945C32.3568 27.1142 30.6878 27.6646 28.9735 27.6646C27.2592 27.6646 25.5902 27.1142 24.2122 26.0945C22.8342 25.0747 21.82 23.6394 21.319 22H16.628C16.0603 23.8624 14.8329 25.4538 13.1758 26.476C11.5187 27.4982 9.54577 27.881 7.62666 27.5527C5.70756 27.2244 3.97405 26.2075 2.75102 24.6926C1.52799 23.1777 0.899395 21.2687 0.983038 19.3236C1.06668 17.3784 1.85682 15.5305 3.20538 14.1261C4.55394 12.7218 6.36834 11.8575 8.30854 11.6951C10.2487 11.5327 12.1816 12.0835 13.7448 13.2442C15.308 14.4049 16.3942 16.0958 16.8 18H21.148C21.5311 16.2087 22.5172 14.603 23.9415 13.4511C25.3658 12.2992 27.1422 11.6708 28.974 11.6708C30.8058 11.6708 32.5822 12.2992 34.0065 13.4511C35.4308 14.603 36.4169 16.2087 36.8 18H39.89C40.8369 18.0001 41.7531 17.6643 42.4756 17.0524C43.1982 16.4404 43.6802 15.592 43.836 14.658L44.166 12.685C44.4772 10.8174 45.4408 9.12065 46.8853 7.8966C48.3298 6.67255 50.1616 6.00051 52.055 5.99999H63.225C63.7102 4.11284 64.8675 2.46765 66.4796 1.37321C68.0917 0.278773 70.0479 -0.189661 71.9809 0.0558311C73.9139 0.301323 75.6909 1.24386 76.9782 2.70654C78.2656 4.16921 78.9759 6.05146 78.974 7.99999ZM74.974 7.99999C74.974 9.06086 74.5526 10.0783 73.8024 10.8284C73.0523 11.5786 72.0349 12 70.974 12C69.9131 12 68.8957 11.5786 68.1456 10.8284C67.3954 10.0783 66.974 9.06086 66.974 7.99999C66.974 6.93913 67.3954 5.92171 68.1456 5.17156C68.8957 4.42142 69.9131 3.99999 70.974 3.99999C72.0349 3.99999 73.0523 4.42142 73.8024 5.17156C74.5526 5.92171 74.974 6.93913 74.974 7.99999ZM8.97399 23.667C10.0349 23.667 11.0523 23.2456 11.8024 22.4954C12.5526 21.7453 12.974 20.7279 12.974 19.667C12.974 18.6061 12.5526 17.5887 11.8024 16.8386C11.0523 16.0884 10.0349 15.667 8.97399 15.667C7.91312 15.667 6.89571 16.0884 6.14556 16.8386C5.39542 17.5887 4.97399 18.6061 4.97399 19.667C4.97399 20.7279 5.39542 21.7453 6.14556 22.4954C6.89571 23.2456 7.91312 23.667 8.97399 23.667ZM28.974 23.667C30.0349 23.667 31.0523 23.2456 31.8024 22.4954C32.5526 21.7453 32.974 20.7279 32.974 19.667C32.974 18.6061 32.5526 17.5887 31.8024 16.8386C31.0523 16.0884 30.0349 15.667 28.974 15.667C27.9131 15.667 26.8957 16.0884 26.1456 16.8386C25.3954 17.5887 24.974 18.6061 24.974 19.667C24.974 20.7279 25.3954 21.7453 26.1456 22.4954C26.8957 23.2456 27.9131 23.667 28.974 23.667ZM62.974 36C64.0349 36 65.0523 35.5786 65.8024 34.8284C66.5526 34.0783 66.974 33.0609 66.974 32C66.974 30.9391 66.5526 29.9217 65.8024 29.1716C65.0523 28.4214 64.0349 28 62.974 28C61.9131 28 60.8957 28.4214 60.1456 29.1716C59.3954 29.9217 58.974 30.9391 58.974 32C58.974 33.0609 59.3954 34.0783 60.1456 34.8284C60.8957 35.5786 61.9131 36 62.974 36Z" fill="#838383"/>
<path d="M86.978 30.0009H91.155V21.1579C91.155 18.2539 92.917 16.9809 94.908 16.9809C96.866 16.9809 98.4 18.2859 98.4 20.9619V30.0009H102.576V20.1139C102.576 15.8389 100.096 13.3589 96.213 13.3589C93.766 13.3589 92.395 14.3379 91.416 15.6099H91.156L90.796 13.6849H86.98L86.978 30.0009ZM118.563 19.0039V18.8079C119.999 18.0899 121.435 16.8499 121.435 14.4029C121.435 10.8789 118.53 8.75793 114.517 8.75793C110.405 8.75793 107.468 11.0089 107.468 14.4679C107.468 16.8179 108.839 18.0899 110.34 18.8079V19.0039C109.257 19.396 108.323 20.1157 107.668 21.0631C107.013 22.0104 106.669 23.1383 106.685 24.2899C106.685 27.8469 109.622 30.3269 114.484 30.3269C119.346 30.3269 122.185 27.8469 122.185 24.2899C122.185 21.3539 120.227 19.6239 118.563 19.0039ZM114.484 11.7599C116.116 11.7599 117.323 12.8039 117.323 14.5659C117.323 16.3279 116.083 17.3729 114.484 17.3729C112.885 17.3729 111.547 16.3279 111.547 14.5659C111.547 12.7719 112.82 11.7599 114.484 11.7599ZM114.484 27.1949C112.591 27.1949 111.058 25.9869 111.058 23.9319C111.058 22.0719 112.33 20.6679 114.451 20.6679C116.54 20.6679 117.813 22.0379 117.813 23.9969C117.813 25.9869 116.344 27.1949 114.484 27.1949ZM126.428 30.0009H130.605V21.1579C130.605 18.2539 132.367 16.9809 134.358 16.9809C136.316 16.9809 137.849 18.2859 137.849 20.9619V30.0009H142.026V20.1139C142.026 15.8389 139.546 13.3589 135.663 13.3589C133.216 13.3589 131.845 14.3379 130.866 15.6099H130.605L130.246 13.6849H126.428V30.0009Z" fill="white"/>
</g>
<path d="M221.216 6.65698H159.716C157.231 6.65698 155.216 8.6717 155.216 11.157V30.657C155.216 33.1423 157.231 35.157 159.716 35.157H221.216C223.701 35.157 225.716 33.1423 225.716 30.657V11.157C225.716 8.6717 223.701 6.65698 221.216 6.65698Z" fill="#858585"/>
<path d="M183.47 20.765C183.47 22.4964 183.241 23.924 182.782 25.048C182.331 26.172 181.715 27.05 180.935 27.682C180.156 28.3054 179.27 28.7444 178.277 28.999C177.292 29.253 176.271 29.38 175.212 29.38H170.609V12.322H174.917C176.008 12.322 177.063 12.437 178.08 12.667C179.106 12.8884 180.021 13.3027 180.825 13.91C181.637 14.5087 182.281 15.362 182.757 16.47C183.233 17.5694 183.47 19.001 183.47 20.765ZM179.286 20.765C179.286 19.2304 179.118 18.0694 178.782 17.282C178.453 16.494 178.002 15.9607 177.428 15.682C176.861 15.3954 176.221 15.252 175.508 15.252H174.646V26.463H175.508C176.255 26.463 176.911 26.303 177.477 25.983C178.044 25.655 178.487 25.0767 178.807 24.248C179.127 23.4194 179.287 22.2584 179.287 20.765H179.286ZM190.425 15.202V19.3H196.332V22.131H190.425V26.488H197.551V29.38H186.388V12.322H197.538L197.132 15.202H190.425ZM206.326 26.23L209.539 12.322H213.674L208.75 29.38H203.753L198.854 12.322H203.138L206.326 26.23Z" fill="white"/>
</svg>

<svg xmlns="http://www.w3.org/2000/svg" width="240" height="40" fill="none"><mask id="a" width="143" height="40" x="0" y="0" maskUnits="userSpaceOnUse" style="mask-type:luminance"><path fill="#fff" d="M0 0h143v40H0z"/></mask><g mask="url(#a)"><path fill="#838383" fill-rule="evenodd" d="M78.974 8a8 8 0 0 1-15.748 2h-11.17a4 4 0 0 0-3.945 3.342l-.329 1.973a7.98 7.98 0 0 1-2.6 4.685 7.98 7.98 0 0 1 2.6 4.685l.329 1.973A4 4 0 0 0 52.056 30h3.17a8 8 0 1 1 0 4h-3.17a8 8 0 0 1-7.89-6.685l-.33-1.973A4 4 0 0 0 39.891 22h-3.263a8.005 8.005 0 0 1-15.309 0h-4.691a8 8 0 1 1 .172-4h4.348A8.003 8.003 0 0 1 36.8 18h3.09a4 4 0 0 0 3.946-3.342l.33-1.973A8 8 0 0 1 52.055 6h11.17a8 8 0 0 1 15.749 2m-4 0a4 4 0 1 1-8 0 4 4 0 0 1 8 0m-66 15.667a4 4 0 1 0 0-8 4 4 0 0 0 0 8m20 0a4 4 0 1 0 0-8 4 4 0 0 0 0 8m34 12.333a4 4 0 1 0 0-8 4 4 0 0 0 0 8" clip-rule="evenodd"/><path fill="#fff" d="M86.978 30h4.177v-8.842c0-2.904 1.762-4.177 3.753-4.177 1.958 0 3.492 1.305 3.492 3.98v9.04h4.176v-9.887c0-4.275-2.48-6.755-6.363-6.755-2.447 0-3.818.979-4.797 2.25h-.26l-.36-1.924H86.98zm31.585-10.996v-.196c1.436-.718 2.872-1.958 2.872-4.405 0-3.524-2.905-5.645-6.918-5.645-4.112 0-7.049 2.25-7.049 5.71 0 2.35 1.371 3.622 2.872 4.34v.196a5.54 5.54 0 0 0-3.655 5.286c0 3.557 2.937 6.037 7.799 6.037s7.701-2.48 7.701-6.037c0-2.936-1.958-4.666-3.622-5.286m-4.079-7.244c1.632 0 2.839 1.044 2.839 2.806s-1.24 2.807-2.839 2.807-2.937-1.045-2.937-2.807c0-1.794 1.273-2.806 2.937-2.806m0 15.435c-1.893 0-3.426-1.208-3.426-3.263 0-1.86 1.272-3.264 3.393-3.264 2.089 0 3.362 1.37 3.362 3.329 0 1.99-1.469 3.198-3.329 3.198M126.428 30h4.177v-8.843c0-2.904 1.762-4.177 3.753-4.177 1.958 0 3.491 1.305 3.491 3.98V30h4.177v-9.887c0-4.275-2.48-6.755-6.363-6.755-2.447 0-3.818.979-4.797 2.25h-.261l-.359-1.924h-3.818z"/></g><path fill="#858585" d="M221.216 6.657h-61.5a4.5 4.5 0 0 0-4.5 4.5v19.5a4.5 4.5 0 0 0 4.5 4.5h61.5a4.5 4.5 0 0 0 4.5-4.5v-19.5a4.5 4.5 0 0 0-4.5-4.5"/><path fill="#fff" d="M183.47 20.765q0 2.597-.688 4.283-.677 1.686-1.847 2.634a7 7 0 0 1-2.658 1.317q-1.477.381-3.065.381h-4.603V12.322h4.308q1.637 0 3.163.345a6.9 6.9 0 0 1 2.745 1.243q1.218.898 1.932 2.56.714 1.65.713 4.295m-4.184 0q0-2.303-.504-3.483-.493-1.182-1.354-1.6-.85-.43-1.92-.43h-.862v11.211h.862q1.12 0 1.969-.48.85-.492 1.33-1.735t.48-3.483zm11.139-5.563V19.3h5.907v2.831h-5.907v4.357h7.126v2.892h-11.163V12.322h11.15l-.406 2.88zm15.901 11.028 3.213-13.908h4.135L208.75 29.38h-4.997l-4.899-17.058h4.284z"/></svg>
